%
(Header)
(Generated by gcodetools from Inkscape.)
(Using default header. To add your own header create file "header" in the output dir.)
M3
(Header end.)
G21 (All units in mm)

(Start cutting path id: path6-1)
(Change tool to Default tool)

G00 Z15.000000
G00 X30.319015 Y58.639209

G01 Z-1.000000 F4000.0(Penetrate)
G01 X41.388566 Y58.639209 Z-1.000000 F400.000000
G00 Z15.000000

(End cutting path id: path6-1)


(Start cutting path id: path5-1)
(Change tool to Default tool)

G00 Z15.000000
G00 X30.318965 Y58.639130

G01 Z-1.000000 F4000.0(Penetrate)
G01 X52.458228 Y58.639130 Z-1.000000 F400.000000
G01 X41.388595 Y76.350540 Z-1.000000
G01 X30.318965 Y58.639130 Z-1.000000
G00 Z15.000000

(End cutting path id: path5-1)


(Footer)
M5
G00 X0.0000 Y0.0000
M2
(Using default footer. To add your own footer create file "footer" in the output dir.)
(end)
%