%
(Header)
(Generated by gcodetools from Inkscape.)
(Using default header. To add your own header create file "header" in the output dir.)
M3
(Header end.)
G21 (All units in mm)

(Start cutting path id: path10)
(Change tool to Default tool)

G00 Z15.000000
G00 X1.049000 Y27.603611

G01 Z-1.000000 F4000.0(Penetrate)
G01 X81.048845 Y27.603611 Z-1.000000 F4000.000000
G00 Z15.000000

(End cutting path id: path10)


(Start cutting path id: path8)
(Change tool to Default tool)

G00 Z15.000000
G00 X54.382318 Y0.936291

G01 Z-1.000000 F4000.0(Penetrate)
G01 X54.382318 Y80.936400 Z-1.000000 F4000.000000
G00 Z15.000000

(End cutting path id: path8)


(Start cutting path id: path9)
(Change tool to Default tool)

G00 Z15.000000
G00 X1.049000 Y54.269609

G01 Z-1.000000 F4000.0(Penetrate)
G01 X81.048845 Y54.269609 Z-1.000000 F4000.000000
G00 Z15.000000

(End cutting path id: path9)


(Start cutting path id: path7)
(Change tool to Default tool)

G00 Z15.000000
G00 X27.715527 Y0.936291

G01 Z-1.000000 F4000.0(Penetrate)
G01 X27.715527 Y80.936400 Z-1.000000 F4000.000000
G00 Z15.000000

(End cutting path id: path7)


(Start cutting path id: path5)
(Change tool to Default tool)

G00 Z15.000000
G00 X1.115146 Y0.936370

G01 Z-1.000000 F4000.0(Penetrate)
G03 X1.106284 Y0.969443 Z-1.000000 I-0.066146 J0.000000 F4000.000000
G03 X1.082073 Y0.993654 Z-1.000000 I-0.057284 J-0.033073
G03 X1.049000 Y1.002516 Z-1.000000 I-0.033073 J-0.057284
G03 X1.015927 Y0.993654 Z-1.000000 I-0.000000 J-0.066146
G03 X0.991716 Y0.969443 Z-1.000000 I0.033073 J-0.057284
G03 X0.982854 Y0.936370 Z-1.000000 I0.057284 J-0.033073
G03 X0.991716 Y0.903297 Z-1.000000 I0.066146 J-0.000000
G03 X1.015927 Y0.879086 Z-1.000000 I0.057284 J0.033073
G03 X1.049000 Y0.870224 Z-1.000000 I0.033073 J0.057284
G03 X1.082073 Y0.879086 Z-1.000000 I0.000000 J0.066146
G03 X1.106284 Y0.903297 Z-1.000000 I-0.033073 J0.057284
G03 X1.115146 Y0.936370 Z-1.000000 I-0.057284 J0.033073
G01 X1.115146 Y0.936370 Z-1.000000
G00 Z15.000000

(End cutting path id: path5)


(Start cutting path id: path6)
(Change tool to Default tool)

G00 Z15.000000
G00 X1.049000 Y0.936370

G01 Z-1.000000 F4000.0(Penetrate)
G01 X81.048901 Y0.936370 Z-1.000000 F4000.000000
G01 X81.048901 Y80.936273 Z-1.000000
G01 X1.049000 Y80.936273 Z-1.000000
G01 X1.049000 Y0.936370 Z-1.000000
G00 Z15.000000

(End cutting path id: path6)

(End cutting path id: text10)


(Footer)
M5
G00 X0.0000 Y0.0000
M2
(Using default footer. To add your own footer create file "footer" in the output dir.)
(end)
%