%
(Header)
(Generated by gcodetools from Inkscape.)
(Using default header. To add your own header create file "header" in the output dir.)
M3
(Header end.)
G21 (All units in mm)

(Start cutting path id: path10)
(Change tool to Default tool)

G00 Z15.000000
G00 X1.049000 Y27.603611

G01 Z-1.000000 F4000.0(Penetrate)
G01 X81.048845 Y27.603611 Z-1.000000 F4000.000000
G00 Z15.000000

(End cutting path id: path10)


(Start cutting path id: path8)
(Change tool to Default tool)

G00 Z15.000000
G00 X54.382318 Y0.936291

G01 Z-1.000000 F4000.0(Penetrate)
G01 X54.382318 Y80.936400 Z-1.000000 F4000.000000
G00 Z15.000000

(End cutting path id: path8)


(Start cutting path id: path9)
(Change tool to Default tool)

G00 Z15.000000
G00 X1.049000 Y54.269609

G01 Z-1.000000 F4000.0(Penetrate)
G01 X81.048845 Y54.269609 Z-1.000000 F4000.000000
G00 Z15.000000

(End cutting path id: path9)


(Start cutting path id: path7)
(Change tool to Default tool)

G00 Z15.000000
G00 X27.715527 Y0.936291

G01 Z-1.000000 F4000.0(Penetrate)
G01 X27.715527 Y80.936400 Z-1.000000 F4000.000000
G00 Z15.000000

(End cutting path id: path7)


(Start cutting path id: path5)
(Change tool to Default tool)

G00 Z15.000000
G00 X1.115146 Y0.936370

G01 Z-1.000000 F4000.0(Penetrate)
G03 X1.106284 Y0.969443 Z-1.000000 I-0.066146 J0.000000 F4000.000000
G03 X1.082073 Y0.993654 Z-1.000000 I-0.057284 J-0.033073
G03 X1.049000 Y1.002516 Z-1.000000 I-0.033073 J-0.057284
G03 X1.015927 Y0.993654 Z-1.000000 I-0.000000 J-0.066146
G03 X0.991716 Y0.969443 Z-1.000000 I0.033073 J-0.057284
G03 X0.982854 Y0.936370 Z-1.000000 I0.057284 J-0.033073
G03 X0.991716 Y0.903297 Z-1.000000 I0.066146 J-0.000000
G03 X1.015927 Y0.879086 Z-1.000000 I0.057284 J0.033073
G03 X1.049000 Y0.870224 Z-1.000000 I0.033073 J0.057284
G03 X1.082073 Y0.879086 Z-1.000000 I0.000000 J0.066146
G03 X1.106284 Y0.903297 Z-1.000000 I-0.033073 J0.057284
G03 X1.115146 Y0.936370 Z-1.000000 I-0.057284 J0.033073
G01 X1.115146 Y0.936370 Z-1.000000
G00 Z15.000000

(End cutting path id: path5)


(Start cutting path id: path6)
(Change tool to Default tool)

G00 Z15.000000
G00 X1.049000 Y0.936370

G01 Z-1.000000 F4000.0(Penetrate)
G01 X81.048901 Y0.936370 Z-1.000000 F4000.000000
G01 X81.048901 Y80.936273 Z-1.000000
G01 X1.049000 Y80.936273 Z-1.000000
G01 X1.049000 Y0.936370 Z-1.000000
G00 Z15.000000

(End cutting path id: path6)


(Start cutting path id: text11)
(Change tool to Default tool)

G00 Z15.000000
G00 X49.832020 Y-128.658102

G01 Z-1.000000 F4000.0(Penetrate)
G01 X48.752920 Y-128.658102 Z-1.000000 F4000.000000
G01 X48.752920 Y-130.704000 Z-1.000000
G01 X47.815420 Y-130.704000 Z-1.000000
G01 X47.815420 Y-128.658102 Z-1.000000
G01 X44.333980 Y-128.658102 Z-1.000000
G01 X44.333980 Y-127.535055 Z-1.000000
G01 X47.854480 Y-123.433492 Z-1.000000
G01 X48.752920 Y-123.433492 Z-1.000000
G01 X48.752920 Y-127.876852 Z-1.000000
G01 X49.832020 Y-127.876852 Z-1.000000
G01 X49.832020 Y-128.658102 Z-1.000000
G00 Z15.000000

(Change tool to Default tool)

G00 Z15.000000
G00 X47.815420 Y-127.876852

G01 Z-1.000000 F4000.0(Penetrate)
G01 X47.815420 Y-124.595602 Z-1.000000 F4000.000000
G01 X44.998040 Y-127.876852 Z-1.000000
G01 X47.815420 Y-127.876852 Z-1.000000
G00 Z15.000000

(Change tool to Default tool)

G00 Z15.000000
G00 X56.013660 Y-127.066305

G01 Z-1.000000 F4000.0(Penetrate)
G02 X55.813027 Y-128.963297 Z-1.000000 I-9.068380 J-0.000000 F4000.000000
G02 X55.398430 Y-129.942281 Z-1.000000 I-2.754514 J0.589247
G02 X54.648144 Y-130.593506 Z-1.000000 I-1.566821 J1.047337
G02 X53.499020 Y-130.855367 Z-1.000000 I-1.149124 J2.390418
G02 X52.335108 Y-130.588164 Z-1.000000 I0.000000 J2.668548
G02 X51.584950 Y-129.927633 Z-1.000000 I0.815371 J1.682247
G02 X51.178782 Y-128.942463 Z-1.000000 I2.451567 J1.587050
G02 X50.984370 Y-127.076070 Z-1.000000 I8.861662 J1.866393
G02 X51.182532 Y-125.197196 Z-1.000000 I9.006348 J0.000000
G02 X51.594720 Y-124.214742 Z-1.000000 I2.801084 J-0.597499
G02 X52.348164 Y-123.552433 Z-1.000000 I1.583701 J-1.041906
G02 X53.499020 Y-123.287008 Z-1.000000 I1.150856 J-2.362288
G02 X54.659116 Y-123.557731 Z-1.000000 I0.000000 J-2.620970
G02 X55.408200 Y-124.229391 Z-1.000000 I-0.827496 J-1.676430
G02 X55.819276 Y-125.224203 Z-1.000000 I-2.503562 J-1.616860
G02 X56.013660 Y-127.066305 Z-1.000000 I-8.631263 J-1.842102
G01 X56.013660 Y-127.066305 Z-1.000000
G00 Z15.000000

(Change tool to Default tool)

G00 Z15.000000
G00 X54.729480 Y-129.283102

G01 Z-1.000000 F4000.0(Penetrate)
G03 X54.865906 Y-128.878469 Z-1.000000 I-2.373149 J1.025444 F4000.000000
G03 X54.958980 Y-128.355367 Z-1.000000 I-3.885311 J0.961135
G03 X55.003997 Y-127.817169 Z-1.000000 I-7.836091 J0.926426
G03 X55.022480 Y-127.066305 Z-1.000000 I-15.242686 J0.750864
G03 X55.004237 Y-126.325173 Z-1.000000 I-15.063383 J0.000000
G03 X54.958980 Y-125.777242 Z-1.000000 I-8.274569 J-0.407610
G03 X54.862952 Y-125.240708 Z-1.000000 I-3.854709 J-0.413049
G03 X54.724600 Y-124.849508 Z-1.000000 I-2.178353 J-0.550333
G03 X54.512019 Y-124.509669 Z-1.000000 I-1.382617 J-0.628468
G03 X54.255850 Y-124.283102 Z-1.000000 I-0.851635 J-0.704802
G03 X53.946449 Y-124.148098 Z-1.000000 I-0.560239 J-0.861908
G03 X53.499020 Y-124.092672 Z-1.000000 I-0.447429 J-1.778228
G03 X53.055765 Y-124.147239 Z-1.000000 I0.000000 J-1.827586
G03 X52.737300 Y-124.283102 Z-1.000000 I0.266414 J-1.065656
G03 X52.481540 Y-124.510060 Z-1.000000 I0.589183 J-0.921540
G03 X52.263660 Y-124.859273 Z-1.000000 I1.224326 J-1.006454
G03 X52.134428 Y-125.230771 Z-1.000000 I1.866270 J-0.857444
G03 X52.034170 Y-125.801656 Z-1.000000 I4.333309 J-1.055251
G03 X51.991484 Y-126.383511 Z-1.000000 I10.640197 J-1.073075
G03 X51.975570 Y-127.076070 Z-1.000000 I15.061541 J-0.692559
G03 X51.991594 Y-127.836952 Z-1.000000 I18.073358 J-0.000000
G03 X52.029270 Y-128.350484 Z-1.000000 I8.265946 J0.348302
G03 X52.118115 Y-128.853951 Z-1.000000 I3.618945 J0.379050
G03 X52.258760 Y-129.268453 Z-1.000000 I2.587667 J0.646910
G03 X52.462378 Y-129.614545 Z-1.000000 I1.409502 J0.596318
G03 X52.712860 Y-129.849508 Z-1.000000 I0.882119 J0.689384
G03 X53.028678 Y-129.990759 Z-1.000000 I0.566375 J0.842652
G03 X53.499000 Y-130.049703 Z-1.000000 I0.470322 J1.846892
G03 X53.942245 Y-129.995136 Z-1.000000 I-0.000000 J1.827522
G03 X54.260710 Y-129.859273 Z-1.000000 I-0.266420 J1.065666
G03 X54.518881 Y-129.630701 Z-1.000000 I-0.565059 J0.898320
G03 X54.729460 Y-129.283102 Z-1.000000 I-1.143608 J0.930394
G01 X54.729480 Y-129.283102 Z-1.000000
G00 Z15.000000

(Change tool to Default tool)

G00 Z15.000000
G00 X62.371090 Y-127.066305

G01 Z-1.000000 F4000.0(Penetrate)
G02 X62.170454 Y-128.963295 Z-1.000000 I-9.068230 J0.000000 F4000.000000
G02 X61.755850 Y-129.942281 Z-1.000000 I-2.754493 J0.589252
G02 X61.005564 Y-130.593506 Z-1.000000 I-1.566821 J1.047337
G02 X59.856440 Y-130.855367 Z-1.000000 I-1.149124 J2.390418
G02 X58.692528 Y-130.588164 Z-1.000000 I-0.000000 J2.668548
G02 X57.942370 Y-129.927633 Z-1.000000 I0.815371 J1.682247
G02 X57.536202 Y-128.942463 Z-1.000000 I2.451567 J1.587050
G02 X57.341790 Y-127.076070 Z-1.000000 I8.861662 J1.866393
G02 X57.539952 Y-125.197196 Z-1.000000 I9.006348 J0.000000
G02 X57.952140 Y-124.214742 Z-1.000000 I2.801084 J-0.597499
G02 X58.705584 Y-123.552433 Z-1.000000 I1.583701 J-1.041906
G02 X59.856440 Y-123.287008 Z-1.000000 I1.150856 J-2.362288
G02 X61.016536 Y-123.557731 Z-1.000000 I0.000000 J-2.620970
G02 X61.765620 Y-124.229391 Z-1.000000 I-0.827496 J-1.676430
G02 X62.176703 Y-125.224205 Z-1.000000 I-2.503531 J-1.616867
G02 X62.371090 Y-127.066305 Z-1.000000 I-8.631112 J-1.842100
G01 X62.371090 Y-127.066305 Z-1.000000
G00 Z15.000000

(Change tool to Default tool)

G00 Z15.000000
G00 X61.086910 Y-129.283102

G01 Z-1.000000 F4000.0(Penetrate)
G03 X61.223328 Y-128.878470 Z-1.000000 I-2.373312 J1.025454 F4000.000000
G03 X61.316400 Y-128.355367 Z-1.000000 I-3.885622 J0.961170
G03 X61.361417 Y-127.817169 Z-1.000000 I-7.836091 J0.926426
G03 X61.379900 Y-127.066305 Z-1.000000 I-15.242686 J0.750864
G03 X61.361657 Y-126.325173 Z-1.000000 I-15.063383 J0.000000
G03 X61.316400 Y-125.777242 Z-1.000000 I-8.274569 J-0.407610
G03 X61.220372 Y-125.240708 Z-1.000000 I-3.854709 J-0.413049
G03 X61.082020 Y-124.849508 Z-1.000000 I-2.178353 J-0.550333
G03 X60.869439 Y-124.509669 Z-1.000000 I-1.382617 J-0.628468
G03 X60.613270 Y-124.283102 Z-1.000000 I-0.851635 J-0.704802
G03 X60.303869 Y-124.148098 Z-1.000000 I-0.560239 J-0.861908
G03 X59.856440 Y-124.092672 Z-1.000000 I-0.447429 J-1.778228
G03 X59.413185 Y-124.147239 Z-1.000000 I0.000000 J-1.827586
G03 X59.094720 Y-124.283102 Z-1.000000 I0.266414 J-1.065656
G03 X58.838962 Y-124.510060 Z-1.000000 I0.589162 J-0.921508
G03 X58.621090 Y-124.859273 Z-1.000000 I1.224270 J-1.006387
G03 X58.491850 Y-125.230772 Z-1.000000 I1.866142 J-0.857437
G03 X58.391590 Y-125.801656 Z-1.000000 I4.332960 J-1.055212
G03 X58.348904 Y-126.383511 Z-1.000000 I10.640197 J-1.073075
G03 X58.332990 Y-127.076070 Z-1.000000 I15.061541 J-0.692559
G03 X58.349014 Y-127.836952 Z-1.000000 I18.073358 J-0.000000
G03 X58.386690 Y-128.350484 Z-1.000000 I8.265946 J0.348302
G03 X58.475535 Y-128.853951 Z-1.000000 I3.618945 J0.379050
G03 X58.616180 Y-129.268453 Z-1.000000 I2.587667 J0.646910
G03 X58.819805 Y-129.614547 Z-1.000000 I1.409627 J0.596408
G03 X59.070280 Y-129.849508 Z-1.000000 I0.882147 J0.689406
G03 X59.386108 Y-129.990760 Z-1.000000 I0.566402 J0.842720
G03 X59.856420 Y-130.049703 Z-1.000000 I0.470312 J1.846856
G03 X60.299665 Y-129.995137 Z-1.000000 I-0.000000 J1.827548
G03 X60.618140 Y-129.859273 Z-1.000000 I-0.266433 J1.065733
G03 X60.876304 Y-129.630704 Z-1.000000 I-0.565087 J0.898334
G03 X61.086890 Y-129.283102 Z-1.000000 I-1.143714 J0.930480
G01 X61.086910 Y-129.283102 Z-1.000000
G00 Z15.000000

(Change tool to Default tool)

G00 Z15.000000
G00 X68.728510 Y-127.066305

G01 Z-1.000000 F4000.0(Penetrate)
G02 X68.527874 Y-128.963295 Z-1.000000 I-9.068230 J0.000000 F4000.000000
G02 X68.113270 Y-129.942281 Z-1.000000 I-2.754493 J0.589252
G02 X67.362984 Y-130.593506 Z-1.000000 I-1.566821 J1.047337
G02 X66.213860 Y-130.855367 Z-1.000000 I-1.149124 J2.390418
G02 X65.049957 Y-130.588165 Z-1.000000 I0.000000 J2.668515
G02 X64.299800 Y-129.927633 Z-1.000000 I0.815378 J1.682252
G02 X63.893625 Y-128.942461 Z-1.000000 I2.451536 J1.587057
G02 X63.699210 Y-127.076070 Z-1.000000 I8.861506 J1.866391
G02 X63.897372 Y-125.197196 Z-1.000000 I9.006348 J0.000000
G02 X64.309560 Y-124.214742 Z-1.000000 I2.801084 J-0.597499
G02 X65.063004 Y-123.552433 Z-1.000000 I1.583701 J-1.041906
G02 X66.213860 Y-123.287008 Z-1.000000 I1.150856 J-2.362288
G02 X67.373956 Y-123.557731 Z-1.000000 I0.000000 J-2.620970
G02 X68.123040 Y-124.229391 Z-1.000000 I-0.827496 J-1.676430
G02 X68.534123 Y-125.224205 Z-1.000000 I-2.503531 J-1.616867
G02 X68.728510 Y-127.066305 Z-1.000000 I-8.631112 J-1.842100
G01 X68.728510 Y-127.066305 Z-1.000000
G00 Z15.000000

(Change tool to Default tool)

G00 Z15.000000
G00 X67.444330 Y-129.283102

G01 Z-1.000000 F4000.0(Penetrate)
G03 X67.580754 Y-128.878468 Z-1.000000 I-2.373001 J1.025380 F4000.000000
G03 X67.673820 Y-128.355367 Z-1.000000 I-3.885064 J0.961032
G03 X67.718837 Y-127.817169 Z-1.000000 I-7.836091 J0.926426
G03 X67.737320 Y-127.066305 Z-1.000000 I-15.242686 J0.750864
G03 X67.719077 Y-126.325173 Z-1.000000 I-15.063383 J0.000000
G03 X67.673820 Y-125.777242 Z-1.000000 I-8.274569 J-0.407610
G03 X67.577795 Y-125.240707 Z-1.000000 I-3.854991 J-0.413079
G03 X67.439450 Y-124.849508 Z-1.000000 I-2.178475 J-0.550340
G03 X67.226869 Y-124.509669 Z-1.000000 I-1.382617 J-0.628468
G03 X66.970700 Y-124.283102 Z-1.000000 I-0.851635 J-0.704802
G03 X66.661299 Y-124.148099 Z-1.000000 I-0.560233 J-0.861900
G03 X66.213860 Y-124.092672 Z-1.000000 I-0.447439 J-1.778291
G03 X65.770605 Y-124.147239 Z-1.000000 I-0.000000 J-1.827586
G03 X65.452140 Y-124.283102 Z-1.000000 I0.266414 J-1.065656
G03 X65.196382 Y-124.510060 Z-1.000000 I0.589162 J-0.921508
G03 X64.978510 Y-124.859273 Z-1.000000 I1.224270 J-1.006387
G03 X64.849272 Y-125.230772 Z-1.000000 I1.866043 J-0.857392
G03 X64.749020 Y-125.801656 Z-1.000000 I4.332726 J-1.055109
G03 X64.706334 Y-126.383511 Z-1.000000 I10.640197 J-1.073075
G03 X64.690420 Y-127.076070 Z-1.000000 I15.061541 J-0.692559
G03 X64.706444 Y-127.836952 Z-1.000000 I18.073358 J-0.000000
G03 X64.744120 Y-128.350484 Z-1.000000 I8.265946 J0.348302
G03 X64.832965 Y-128.853951 Z-1.000000 I3.618945 J0.379050
G03 X64.973610 Y-129.268453 Z-1.000000 I2.587667 J0.646910
G03 X65.177236 Y-129.614545 Z-1.000000 I1.409567 J0.596382
G03 X65.427720 Y-129.849508 Z-1.000000 I0.882144 J0.689419
G03 X65.743538 Y-129.990759 Z-1.000000 I0.566380 J0.842660
G03 X66.213850 Y-130.049703 Z-1.000000 I0.470312 J1.846830
G03 X66.657095 Y-129.995137 Z-1.000000 I-0.000000 J1.827548
G03 X66.975570 Y-129.859273 Z-1.000000 I-0.266433 J1.065733
G03 X67.233734 Y-129.630704 Z-1.000000 I-0.565087 J0.898334
G03 X67.444320 Y-129.283102 Z-1.000000 I-1.143714 J0.930480
G01 X67.444330 Y-129.283102 Z-1.000000
G00 Z15.000000

(Change tool to Default tool)

G00 Z15.000000
G00 X71.790030 Y-130.704000

G01 Z-1.000000 F4000.0(Penetrate)
G01 X70.623040 Y-130.704000 Z-1.000000 F4000.000000
G01 X70.623040 Y-129.312398 Z-1.000000
G01 X71.790030 Y-129.312398 Z-1.000000
G01 X71.790030 Y-130.704000 Z-1.000000
G00 Z15.000000

(Change tool to Default tool)

G00 Z15.000000
G00 X78.723620 Y-127.066305

G01 Z-1.000000 F4000.0(Penetrate)
G02 X78.522987 Y-128.963297 Z-1.000000 I-9.068380 J-0.000000 F4000.000000
G02 X78.108390 Y-129.942281 Z-1.000000 I-2.754514 J0.589247
G02 X77.358104 Y-130.593506 Z-1.000000 I-1.566821 J1.047337
G02 X76.208980 Y-130.855367 Z-1.000000 I-1.149124 J2.390418
G02 X75.045068 Y-130.588164 Z-1.000000 I0.000000 J2.668548
G02 X74.294910 Y-129.927633 Z-1.000000 I0.815371 J1.682247
G02 X73.888742 Y-128.942463 Z-1.000000 I2.451567 J1.587050
G02 X73.694330 Y-127.076070 Z-1.000000 I8.861662 J1.866393
G02 X73.892492 Y-125.197196 Z-1.000000 I9.006348 J0.000000
G02 X74.304680 Y-124.214742 Z-1.000000 I2.801084 J-0.597499
G02 X75.058124 Y-123.552433 Z-1.000000 I1.583701 J-1.041906
G02 X76.208980 Y-123.287008 Z-1.000000 I1.150856 J-2.362288
G02 X77.369076 Y-123.557731 Z-1.000000 I0.000000 J-2.620970
G02 X78.118160 Y-124.229391 Z-1.000000 I-0.827496 J-1.676430
G02 X78.529236 Y-125.224203 Z-1.000000 I-2.503562 J-1.616860
G02 X78.723620 Y-127.066305 Z-1.000000 I-8.631263 J-1.842102
G01 X78.723620 Y-127.066305 Z-1.000000
G00 Z15.000000

(Change tool to Default tool)

G00 Z15.000000
G00 X77.439450 Y-129.283102

G01 Z-1.000000 F4000.0(Penetrate)
G03 X77.575868 Y-128.878470 Z-1.000000 I-2.373312 J1.025454 F4000.000000
G03 X77.668940 Y-128.355367 Z-1.000000 I-3.885622 J0.961170
G03 X77.713957 Y-127.817169 Z-1.000000 I-7.836091 J0.926426
G03 X77.732440 Y-127.066305 Z-1.000000 I-15.242686 J0.750864
G03 X77.714197 Y-126.325173 Z-1.000000 I-15.063383 J0.000000
G03 X77.668940 Y-125.777242 Z-1.000000 I-8.274569 J-0.407610
G03 X77.572912 Y-125.240708 Z-1.000000 I-3.854709 J-0.413049
G03 X77.434560 Y-124.849508 Z-1.000000 I-2.178353 J-0.550333
G03 X77.221979 Y-124.509669 Z-1.000000 I-1.382617 J-0.628468
G03 X76.965810 Y-124.283102 Z-1.000000 I-0.851635 J-0.704802
G03 X76.656409 Y-124.148098 Z-1.000000 I-0.560239 J-0.861908
G03 X76.208980 Y-124.092672 Z-1.000000 I-0.447429 J-1.778228
G03 X75.765725 Y-124.147239 Z-1.000000 I-0.000000 J-1.827586
G03 X75.447260 Y-124.283102 Z-1.000000 I0.266414 J-1.065656
G03 X75.191500 Y-124.510060 Z-1.000000 I0.589183 J-0.921540
G03 X74.973620 Y-124.859273 Z-1.000000 I1.224326 J-1.006454
G03 X74.844388 Y-125.230771 Z-1.000000 I1.866270 J-0.857444
G03 X74.744130 Y-125.801656 Z-1.000000 I4.333309 J-1.055251
G03 X74.701444 Y-126.383511 Z-1.000000 I10.640197 J-1.073075
G03 X74.685530 Y-127.076070 Z-1.000000 I15.061541 J-0.692559
G03 X74.701554 Y-127.836952 Z-1.000000 I18.073358 J-0.000000
G03 X74.739230 Y-128.350484 Z-1.000000 I8.265946 J0.348302
G03 X74.828075 Y-128.853951 Z-1.000000 I3.618945 J0.379050
G03 X74.968720 Y-129.268453 Z-1.000000 I2.587667 J0.646910
G03 X75.172338 Y-129.614545 Z-1.000000 I1.409502 J0.596318
G03 X75.422820 Y-129.849508 Z-1.000000 I0.882119 J0.689384
G03 X75.738648 Y-129.990760 Z-1.000000 I0.566402 J0.842720
G03 X76.208960 Y-130.049703 Z-1.000000 I0.470312 J1.846856
G03 X76.652205 Y-129.995137 Z-1.000000 I-0.000000 J1.827548
G03 X76.970680 Y-129.859273 Z-1.000000 I-0.266433 J1.065733
G03 X77.228844 Y-129.630704 Z-1.000000 I-0.565087 J0.898334
G03 X77.439430 Y-129.283102 Z-1.000000 I-1.143714 J0.930480
G01 X77.439450 Y-129.283102 Z-1.000000
G00 Z15.000000

(End cutting path id: text11)


(Start cutting path id: text10)
(Change tool to Default tool)

G00 Z15.000000
G00 X-102.204109 Y-123.995016

G01 Z-1.000000 F4000.0(Penetrate)
G01 X-102.252937 Y-123.995016 Z-1.000000 F4000.000000
G03 X-102.405455 Y-123.955970 Z-1.000000 I-0.686941 J-2.365876
G03 X-102.648445 Y-123.907126 Z-1.000000 I-1.324524 J-5.960399
G03 X-102.893621 Y-123.868746 Z-1.000000 I-0.577875 J-2.889263
G03 X-103.078133 Y-123.858296 Z-1.000000 I-0.184512 J-1.623644
G03 X-103.634822 Y-123.941777 Z-1.000000 I0.000000 J-1.897874
G03 X-103.937508 Y-124.121968 Z-1.000000 I0.218000 J-0.710520
G03 X-104.112460 Y-124.417993 Z-1.000000 I0.466765 J-0.475572
G03 X-104.201180 Y-125.064351 Z-1.000000 I2.310133 J-0.646358
G01 X-104.201180 Y-125.249897 Z-1.000000
G01 X-102.545906 Y-125.249897 Z-1.000000
G01 X-102.545906 Y-126.021382 Z-1.000000
G01 X-104.171883 Y-126.021382 Z-1.000000
G01 X-104.171883 Y-130.704000 Z-1.000000
G01 X-105.089852 Y-130.704000 Z-1.000000
G01 X-105.089852 Y-126.021383 Z-1.000000
G01 X-105.709969 Y-126.021383 Z-1.000000
G01 X-105.709969 Y-125.249898 Z-1.000000
G01 X-105.089852 Y-125.249898 Z-1.000000
G01 X-105.089852 Y-125.069234 Z-1.000000
G02 X-104.945132 Y-124.154626 Z-1.000000 I2.962449 J0.000000
G02 X-104.606453 Y-123.579977 Z-1.000000 I1.462099 J-0.474583
G02 X-104.056128 Y-123.210619 Z-1.000000 I1.053018 J-0.974288
G02 X-103.209969 Y-123.057516 Z-1.000000 I0.846159 J-2.261695
G02 X-102.902839 Y-123.065665 Z-1.000000 I0.000000 J-5.791811
G02 X-102.658211 Y-123.086816 Z-1.000000 I-0.196164 J-3.694025
G02 X-102.409803 Y-123.120118 Z-1.000000 I-0.906872 J-7.707587
G02 X-102.204109 Y-123.155176 Z-1.000000 I-0.800755 J-5.319253
G01 X-102.204109 Y-123.995016 Z-1.000000
G00 Z15.000000

(Change tool to Default tool)

G00 Z15.000000
G00 X-97.057625 Y-128.072164

G01 Z-1.000000 F4000.0(Penetrate)
G01 X-101.076180 Y-128.072164 Z-1.000000 F4000.000000
G03 X-101.033889 Y-128.566900 Z-1.000000 I2.914953 J-0.000000
G03 X-100.924813 Y-128.951070 Z-1.000000 I1.858197 J0.320023
G03 X-100.738808 Y-129.297924 Z-1.000000 I1.739539 J0.709548
G03 X-100.509773 Y-129.561422 Z-1.000000 I1.222401 J0.831232
G03 X-100.236771 Y-129.763627 Z-1.000000 I1.069730 J1.158874
G03 X-99.909188 Y-129.912984 Z-1.000000 I0.894763 J1.528556
G03 X-99.552541 Y-129.998845 Z-1.000000 I0.679195 J2.037576
G03 X-99.137703 Y-130.030172 Z-1.000000 I0.414838 J2.731006
G03 X-98.591100 Y-129.976975 Z-1.000000 I-0.000000 J2.834793
G03 X-98.019539 Y-129.810445 Z-1.000000 I-0.642310 J3.268639
G03 X-97.472797 Y-129.554092 Z-1.000000 I-1.828437 J4.610850
G03 X-97.213875 Y-129.370992 Z-1.000000 I-0.655058 J1.200940
G01 X-97.165047 Y-129.370992 Z-1.000000
G01 X-97.165047 Y-130.371969 Z-1.000000
G02 X-97.634335 Y-130.551578 Z-1.000000 I-2.955590 J7.019545
G02 X-98.112313 Y-130.699117 Z-1.000000 I-2.464050 J7.134720
G02 X-98.600278 Y-130.796849 Z-1.000000 I-0.955372 J3.503030
G02 X-99.127938 Y-130.830953 Z-1.000000 I-0.527659 J4.064930
G02 X-100.399359 Y-130.617434 Z-1.000000 I-0.000000 J3.892165
G02 X-101.247078 Y-130.098531 Z-1.000000 I0.755682 J2.186439
G02 X-101.786615 Y-129.267069 Z-1.000000 I1.537650 J1.588567
G02 X-102.008797 Y-128.008687 Z-1.000000 I3.452485 J1.258382
G02 X-101.799659 Y-126.752722 Z-1.000000 I3.875881 J0.000000
G02 X-101.281258 Y-125.884664 Z-1.000000 I2.312121 J-0.791968
G02 X-100.455032 Y-125.314134 Z-1.000000 I1.710609 J-1.593734
G02 X-99.357430 Y-125.098531 Z-1.000000 I1.097602 J-2.686056
G02 X-98.335825 Y-125.285775 Z-1.000000 I0.000000 J-2.880566
G02 X-97.658211 Y-125.743062 Z-1.000000 I-0.632880 J-1.668502
G02 X-97.236021 Y-126.457828 Z-1.000000 I-1.413083 J-1.316735
G02 X-97.057625 Y-127.574117 Z-1.000000 I-3.403322 J-1.116289
G01 X-97.057625 Y-128.072164 Z-1.000000
G00 Z15.000000

(Change tool to Default tool)

G00 Z15.000000
G00 X-97.951180 Y-127.369039

G01 Z-1.000000 F4000.0(Penetrate)
G03 X-98.062224 Y-126.687990 Z-1.000000 I-2.236631 J-0.015104 F4000.000000
G03 X-98.317391 Y-126.250875 Z-1.000000 I-1.143591 J-0.374539
G03 X-98.727025 Y-125.974905 Z-1.000000 I-0.758013 J-0.683148
G03 X-99.406258 Y-125.855367 Z-1.000000 I-0.679233 J-1.869986
G03 X-100.093110 Y-125.978140 Z-1.000000 I-0.000000 J-1.982676
G03 X-100.583016 Y-126.289937 Z-1.000000 I0.475771 J-1.288325
G03 X-100.917416 Y-126.771425 Z-1.000000 I1.168197 J-1.168195
G03 X-101.076180 Y-127.369039 Z-1.000000 I1.671783 J-0.764027
G01 X-97.951180 Y-127.369039 Z-1.000000
G00 Z15.000000

(Change tool to Default tool)

G00 Z15.000000
G00 X-91.100594 Y-128.072164

G01 Z-1.000000 F4000.0(Penetrate)
G01 X-95.119148 Y-128.072164 Z-1.000000 F4000.000000
G03 X-95.076857 Y-128.566900 Z-1.000000 I2.914957 J0.000000
G03 X-94.967781 Y-128.951070 Z-1.000000 I1.858198 J0.320023
G03 X-94.781776 Y-129.297924 Z-1.000000 I1.739536 J0.709546
G03 X-94.552742 Y-129.561422 Z-1.000000 I1.222400 J0.831231
G03 X-94.279740 Y-129.763627 Z-1.000000 I1.069728 J1.158871
G03 X-93.952156 Y-129.912984 Z-1.000000 I0.894763 J1.528556
G03 X-93.595510 Y-129.998845 Z-1.000000 I0.679194 J2.037569
G03 X-93.180672 Y-130.030172 Z-1.000000 I0.414838 J2.731006
G03 X-92.634069 Y-129.976975 Z-1.000000 I-0.000000 J2.834795
G03 X-92.062508 Y-129.810445 Z-1.000000 I-0.642309 J3.268633
G03 X-91.515766 Y-129.554092 Z-1.000000 I-1.828439 J4.610852
G03 X-91.256844 Y-129.370992 Z-1.000000 I-0.655060 J1.200943
G01 X-91.208014 Y-129.370992 Z-1.000000
G01 X-91.208014 Y-130.371969 Z-1.000000
G02 X-91.677301 Y-130.551578 Z-1.000000 I-2.955592 J7.019547
G02 X-92.155279 Y-130.699117 Z-1.000000 I-2.464050 J7.134716
G02 X-92.643245 Y-130.796849 Z-1.000000 I-0.955375 J3.503043
G02 X-93.170904 Y-130.830953 Z-1.000000 I-0.527659 J4.064926
G02 X-94.442326 Y-130.617434 Z-1.000000 I-0.000000 J3.892166
G02 X-95.290045 Y-130.098531 Z-1.000000 I0.755682 J2.186441
G02 X-95.829581 Y-129.267069 Z-1.000000 I1.537650 J1.588567
G02 X-96.051764 Y-128.008687 Z-1.000000 I3.452486 J1.258382
G02 X-95.842626 Y-126.752722 Z-1.000000 I3.875883 J-0.000000
G02 X-95.324225 Y-125.884664 Z-1.000000 I2.312121 J-0.791968
G02 X-94.497999 Y-125.314134 Z-1.000000 I1.710608 J-1.593734
G02 X-93.400396 Y-125.098531 Z-1.000000 I1.097603 J-2.686059
G02 X-92.378792 Y-125.285775 Z-1.000000 I0.000000 J-2.880563
G02 X-91.701178 Y-125.743062 Z-1.000000 I-0.632880 J-1.668502
G02 X-91.278988 Y-126.457828 Z-1.000000 I-1.413083 J-1.316735
G02 X-91.100592 Y-127.574117 Z-1.000000 I-3.403322 J-1.116289
G01 X-91.100594 Y-128.072164 Z-1.000000
G00 Z15.000000

(Change tool to Default tool)

G00 Z15.000000
G00 X-91.994148 Y-127.369039

G01 Z-1.000000 F4000.0(Penetrate)
G03 X-92.105203 Y-126.687986 Z-1.000000 I-2.236846 J-0.015167 F4000.000000
G03 X-92.360359 Y-126.250875 Z-1.000000 I-1.143646 J-0.374556
G03 X-92.769994 Y-125.974905 Z-1.000000 I-0.758015 J-0.683150
G03 X-93.449227 Y-125.855367 Z-1.000000 I-0.679233 J-1.869988
G03 X-94.136078 Y-125.978140 Z-1.000000 I0.000000 J-1.982673
G03 X-94.625984 Y-126.289937 Z-1.000000 I0.475772 J-1.288325
G03 X-94.960384 Y-126.771425 Z-1.000000 I1.168194 J-1.168194
G03 X-95.119148 Y-127.369039 Z-1.000000 I1.671777 J-0.764024
G01 X-91.994148 Y-127.369039 Z-1.000000
G00 Z15.000000

(Change tool to Default tool)

G00 Z15.000000
G00 X-85.285164 Y-130.704000

G01 Z-1.000000 F4000.0(Penetrate)
G01 X-86.203133 Y-130.704000 Z-1.000000 F4000.000000
G01 X-86.203133 Y-130.132711 Z-1.000000
G02 X-86.618252 Y-130.443567 Z-1.000000 I-2.426751 J2.808098
G02 X-87.028328 Y-130.664937 Z-1.000000 I-1.624281 J2.518383
G02 X-87.468548 Y-130.805609 Z-1.000000 I-0.869595 J1.962163
G02 X-87.960945 Y-130.855367 Z-1.000000 I-0.492397 J2.411479
G02 X-88.838184 Y-130.654132 Z-1.000000 I-0.000000 J2.012677
G02 X-89.513680 Y-130.103414 Z-1.000000 I0.822595 J1.698606
G02 X-89.913421 Y-129.293686 Z-1.000000 I1.892508 J1.437814
G02 X-90.084969 Y-128.018453 Z-1.000000 I4.654057 J1.275233
G02 X-90.031234 Y-127.334481 Z-1.000000 I4.379848 J-0.000000
G02 X-89.889656 Y-126.783102 Z-1.000000 I2.978361 J-0.470888
G02 X-89.646349 Y-126.266895 Z-1.000000 I3.093532 J-1.142653
G02 X-89.352547 Y-125.860250 Z-1.000000 I2.202688 J-1.281986
G02 X-88.989961 Y-125.531101 Z-1.000000 I1.761089 J-1.575709
G02 X-88.581063 Y-125.293844 Z-1.000000 I1.303337 J-1.775235
G02 X-88.126485 Y-125.147282 Z-1.000000 I0.941475 J-2.141851
G02 X-87.663094 Y-125.098531 Z-1.000000 I0.463391 J-2.177934
G02 X-87.236950 Y-125.124386 Z-1.000000 I0.000000 J-3.524852
G02 X-86.901375 Y-125.191301 Z-1.000000 I-0.273755 J-2.247753
G02 X-86.576817 Y-125.298508 Z-1.000000 I-0.726106 J-2.743085
G02 X-86.203133 Y-125.469621 Z-1.000000 I-1.519098 J-3.811073
G01 X-86.203133 Y-123.106340 Z-1.000000
G01 X-85.285164 Y-123.106340 Z-1.000000
G01 X-85.285164 Y-130.704000 Z-1.000000
G00 Z15.000000

(Change tool to Default tool)

G00 Z15.000000
G00 X-86.203133 Y-129.361227

G01 Z-1.000000 F4000.0(Penetrate)
G01 X-86.203133 Y-126.231344 Z-1.000000 F4000.000000
G03 X-86.579807 Y-126.082335 Z-1.000000 I-1.881981 J-4.206775
G03 X-86.867195 Y-126.001852 Z-1.000000 I-0.817111 J-2.364407
G03 X-87.161992 Y-125.955442 Z-1.000000 I-0.552420 J-2.549493
G03 X-87.506844 Y-125.938372 Z-1.000000 I-0.344852 J-3.474861
G03 X-88.206563 Y-126.087689 Z-1.000000 I0.000000 J-1.714144
G03 X-88.708016 Y-126.475481 Z-1.000000 I0.549273 J-1.228374
G03 X-89.007581 Y-127.058235 Z-1.000000 I1.288252 J-1.030600
G03 X-89.137703 Y-127.998919 Z-1.000000 I3.335156 J-0.940684
G03 X-89.033451 Y-128.939541 Z-1.000000 I4.295557 J-0.000000
G03 X-88.805672 Y-129.478411 Z-1.000000 I1.601685 J0.359454
G03 X-88.394749 Y-129.834723 Z-1.000000 I0.841876 J0.555801
G03 X-87.741219 Y-129.981341 Z-1.000000 I0.653530 J1.383198
G03 X-87.358942 Y-129.940517 Z-1.000000 I-0.000000 J1.810215
G03 X-86.950203 Y-129.810442 Z-1.000000 I-0.475866 J2.202573
G03 X-86.564204 Y-129.610695 Z-1.000000 I-1.369185 J3.118698
G03 X-86.203133 Y-129.361224 Z-1.000000 I-1.789689 J2.976335
G01 X-86.203133 Y-129.361227 Z-1.000000
G00 Z15.000000

(End cutting path id: text10)


(Footer)
M5
G00 X0.0000 Y0.0000
M2
(Using default footer. To add your own footer create file "footer" in the output dir.)
(end)
%